X:1
T:Jesus Paid It All
T:Jesus Paid It All
T:John Thomas Grape
T:Elvina Mable Hall, 1865
T:Public Domain Courtesy of the Cyber Hymnal™
C:John Thomas Grape
Z:Public Domain
Z:Courtesy of the Cyber Hymnal™
%%score ( 1 2 ) ( 3 4 )
L:1/8
Q:1/4=98
M:3/4
K:Eb
V:1 treble 
V:2 treble 
V:3 bass 
V:4 bass 
V:1
 (EG) | [GB]3 [Ac] [GB][EG] | [B,E]4 [B,E]2 | [DF]3 [DF] [CE][DF] | [EG]4 (E[EG]) | %5
w: 1.~I *|hear the Sav- ior|say, “Thy|strength in- deed is|small; Child~of *|
w: 2.~For *|no- thing good have|I Where-|by Thy grace to|claim, I’ll *|
w: 3.~And *|now com- plete in|Him My|robe His right- eous-|ness, Close *|
w: 4.~Lord, *|now in- deed I|find Thy|power and Thine a-|lone, Can *|
w: 5.~When *|from my dy- ing|bed My|ran- somed soul shall|rise, “Jesus *|
w: 6.~And *|when be- fore the|throne I|stand in Him com-|plete, I’ll *|
 [GB]3 [Ac] [GB][EG] | [B,E]4 (E[EF]) | [EG]3 [FA] [EG][DF] | E6 ||"^Refrain" [GB]3 [Ac] [GB][EG] | %10
w: weak- ness, watch and|pray, Find~in *|Me thine all in|all.”||
w: wash my gar- ments|white In~the *|blood of Cal- v’ry’s|Lamb.||
w: shel- tered ’neath His|side, I *|am di- vine- ly|blest.||
w: change the le- per’s|spots And *|melt the heart of|stone.||
w: died my soul to|save,” Shall *|rend the vault- ed|skies.||
w: lay my tro- phies|down All *|down at Je- sus’|feet.||
 [Ge]6 | [GB]3 [Ac] [GB][EG] | [DF]6 | [GB]3 [Ac] [GB][EG] | [Ge][Bd] [Ac]2 [Ee]2 | %15
w: |||||
w: |||||
w: |||||
w: |||||
w: |||||
w: |||||
 [EG]3 [FA] [EG][DF] | [B,E]4 |] %17
w: ||
w: ||
w: ||
w: ||
w: ||
w: ||
V:2
 E2 | x6 | x6 | x6 | x4 E x | x6 | x6 | x6 | E6 || x6 | x6 | x6 | x6 | x6 | x6 | x6 | x4 |] %17
V:3
 ([E,G,]B,) | [E,E]3 [E,E] [E,E][E,B,] | [E,G,]4 [E,G,]2 | [B,,B,]3 [B,,B,] [C,G,][B,,B,] | %4
w: ~ *|~ ~ ~ ~|~ ~|~ ~ ~ ~|
 [E,B,]4 ([E,G,][E,B,]) | [E,E]3 [E,E] [E,E][E,B,] | [E,G,]4 ([G,B,][A,C]) | %7
w: ~ ~ *|~ ~ ~ ~|~ ~ *|
 B,3 [B,,B,] [B,,B,][B,,A,] | [E,G,]6 || [E,E]3 [E,E] [E,E][E,B,] | [E,B,]6 | %11
w: ~ ~ ~ ~|~|Je- sus paid it|all,|
 [E,E]3 [E,E] [E,E][G,B,] | B,6 | [E,E]3 [E,E] [E,E][E,B,] | [E,B,][G,E] [A,E]2 [=A,C]2 | %15
w: All to Him I|owe;|Sin had left a|crim- son stain, He|
 B,3 [B,,B,] [B,,B,][B,,A,] | [E,G,]4 |] %17
w: washed it white as|snow.|
V:4
 x2 | x6 | x6 | x6 | x6 | x6 | x6 | B,3 x3 | x6 || x6 | x6 | x6 | B,6 | x6 | x6 | B,3 x3 | x4 |] %17

